packages/katcn/src/icons/svg/searchFolder-solid.svg

<svg width="24" height="25" viewBox="0 0 24 25" fill="none" xmlns="http://www.w3.org/2000/svg">
<path d="M12.8629 5.98809L11.2386 4.38809C10.5279 3.68809 9.61421 3.28809 8.70051 3.28809H4.74112C3.21827 3.28809 2 4.48809 2 5.98809V18.4881C2 20.0881 3.21827 21.2881 4.74112 21.2881H19.2589C20.7817 21.2881 22 20.0881 22 18.5881V8.78809C22 7.28809 20.7817 6.08809 19.2589 6.08809H12.8629V5.98809Z" fill="black"/>
<path d="M15.8 16.5881L14.5 15.2881C15.3 13.8881 15.1 12.0881 13.9 10.9881C12.5 9.58811 10.1 9.58811 8.69999 10.9881C7.29999 12.3881 7.29999 14.6881 8.69999 16.1881C9.39999 16.8881 10.3 17.2881 11.3 17.2881C11.9 17.2881 12.5 17.0881 13.1 16.7881L14.4 18.0881C14.6 18.2881 14.9 18.3881 15.1 18.3881C15.3 18.3881 15.6 18.2881 15.8 18.0881C16.2 17.5881 16.2 16.9881 15.8 16.5881ZM10.2 14.6881C9.59999 14.0881 9.59999 12.9881 10.2 12.3881C10.5 12.0881 10.9 11.8881 11.4 11.8881C11.8 11.8881 12.3 12.0881 12.6 12.3881C13.2 12.9881 13.2 14.0881 12.6 14.6881C11.9 15.2881 10.8 15.2881 10.2 14.6881Z" fill="white"/>
</svg>

<svg xmlns="http://www.w3.org/2000/svg" fill="none" viewBox="0 0 24 25"><path fill="#000" d="m12.863 5.988-1.624-1.6c-.711-.7-1.625-1.1-2.538-1.1H4.74c-1.522 0-2.74 1.2-2.74 2.7v12.5c0 1.6 1.218 2.8 2.741 2.8H19.26c1.523 0 2.741-1.2 2.741-2.7v-9.8c0-1.5-1.218-2.7-2.741-2.7h-6.396z"/><path fill="#fff" d="m15.8 16.588-1.3-1.3c.8-1.4.6-3.2-.6-4.3-1.4-1.4-3.8-1.4-5.2 0s-1.4 3.7 0 5.2c.7.7 1.6 1.1 2.6 1.1.6 0 1.2-.2 1.8-.5l1.3 1.3c.2.2.5.3.7.3s.5-.1.7-.3c.4-.5.4-1.1 0-1.5m-5.6-1.9c-.6-.6-.6-1.7 0-2.3.3-.3.7-.5 1.2-.5.4 0 .9.2 1.2.5.6.6.6 1.7 0 2.3-.7.6-1.8.6-2.4 0"/></svg>
